!!!OTL: Zhuguohuo
!!!ARE: Asia, China,ÿHebei Tangshan
!! IV, 51
!!!SCT: C1928
!!!YEM: Copyright 1995, estate of Helmut Schaffrath.
**kern
*ICvox
*Ivox
*M2/4
*k[b-]
*F:
{8dd
8dd
8dd
8ff
=1
8a
8dd
4cc
=2
8dd
8dd
8ff
8a
=3
2g}
=4
{8g
8a
8cc
8dd
=5
8a
8g
4f
=6
8d
8a
8g
8e
=7
2d}
=8
{8g
8f
8g
8a
=9
2cc
=10
8g
8f
8g
8a
=11
2cc}
=12
{8g
8a
8cc
8dd
=13
8a
8g
4f
=14
8d
8a
8g
8e
=15
2d}
==
!!!AGN: Xiaodiao
!!!AMT: simple duple
!!!AIN: vox
!!!EED: Helmut Schaffrath
!!!EEV: 1.0
*-
